X:104
T: EIN MAEDCHEN VON ACHTZEHN JAHREN
N: Z0104
O: Europa, Mitteleuropa, Deutschland, Westfalen
R: Sagen - Lied, Romanze, Tod
M: 3/4
L: 1/8
K: E
E2 | E2B2B2 | B2A2=c2 | B4=G2 | F4
F=G | A3=GFG | A2B2=G2 | F4
EF | =G3FE2 | =G3FE2 | A4=c2 | B4
A2 | =G3FE2 | F3=GF2 | E4

